X:1
T:Colors of the Wind
T:Colors of the Wind
%%score 1 2
L:1/8
M:4/4
K:Bb
V:1 treble nm="Flute" snm="Fl."
V:2 bass nm="Tuba" snm="Tba."
V:1
 z4 z2 z F | dffd dccB | cG- G4- GG | dffd dccB | d6- df | gffd dccB | cG- G4 Bd | c2 Bd c2 Bc | %8
 G6- GF | dffd dccB | cG- G4- GG | dffd dccB | f6- ff | gffd dccB | cG- G4 Bd | c2 Bd c2 GB | %16
 B6 df | b2 ag gf- fd/c/ | d2 f2 g2- gg | baag gffd | f6- ff | baag gf- ff/g/ | f2 B4 GB | %23
 cddc cB- BG/F/ | c6 GB | cddc cBGB | B8 |] %27
V:2
 z8 | F,,8 | G,,8 | F,,8 | G,,8 | G,,4 F,,4 | C,,8 | F,,4 F,,4 | G,,8 | F,,8 | G,,8 | F,,8 | %12
 D,,4 F,,4 | G,,4 F,,4 | C,,8 | F,,4 F,,4 | B,,,8 | G,,8 | D,,2 D,,2 E,,4 | G,,8 | F,,8 | %21
 D,,4 F,,4 | G,,6 z2 | z8 | z8 | G,,4 F,,4 | B,,,8 |] %27

